src/assets/images/analysis/diners.svg

<?xml version="1.0" encoding="UTF-8"?>
<svg width="24px" height="16px" viewBox="0 0 24 16" version="1.1" xmlns="http://www.w3.org/2000/svg" xmlns:xlink="http://www.w3.org/1999/xlink">
    <title>SVG Layer</title>
    <g id="Design" stroke="none" stroke-width="1" fill="none" fill-rule="evenodd">
        <g id="2" transform="translate(-349.000000, -2960.000000)" fill-rule="nonzero">
            <g id="Group-18" transform="translate(115.000000, 2591.000000)">
                <g id="Group-19" transform="translate(90.000000, 90.000000)">
                    <g id="Group-7" transform="translate(0.000000, 279.000000)">
                        <g id="SVG-Layer" transform="translate(144.000000, 0.000000)">
                            <path d="M21.9972414,15.75 L21.999381,15.75 C22.9544683,15.7581106 23.73806,14.9772525 23.7500083,14.0041555 L23.7500083,2.00630219 C23.7461702,1.53568921 23.5588633,1.08617106 23.2297297,0.756801782 C22.9014319,0.428268884 22.4589161,0.246148853 21.9972414,0.250000018 L2.00063,0.250000018 C1.54108393,0.246148853 1.09856813,0.428268884 0.77027028,0.756801782 C0.441136651,1.08617106 0.253829819,1.53568921 0.249991686,2.00426336 L0.249991686,13.9936957 C0.253829819,14.4643086 0.441136651,14.9138268 0.77027028,15.2431961 C1.09856813,15.571729 1.54108393,15.753849 2.00275862,15.75 L21.9972414,15.75 Z" id="shape" stroke-opacity="0.2" stroke="#000000" stroke-width="0.5" fill="#FFFFFF"></path>
                            <path d="M10.0021142,2.05179033 L10.0021142,2.03579033 L14.0021142,2.03579033 L14.0021142,2.05179033 C17.1375481,2.28122918 19.5642283,4.89197286 19.5642283,8.03579033 C19.5642283,11.1796078 17.1375481,13.7903515 14.0021142,14.0197903 L14.0021142,14.0357903 L10.0021142,14.0357903 L10.0021142,14.0197903 C6.86668021,13.7903515 4.44,11.1796078 4.44,8.03579033 C4.44,4.89197286 6.86668021,2.28122918 10.0021142,2.05179033 Z" id="shape" fill="#0165AC"></path>
                            <path d="M11.6021142,11.4277903 C13.0374002,10.9175027 13.9961556,9.55908923 13.9961556,8.03579033 C13.9961556,6.51249143 13.0374002,5.15407792 11.6021142,4.64379033 L11.6021142,11.4277903 L11.6021142,11.4277903 Z M9.20211417,4.64379033 C7.76682809,5.15407792 6.80807271,6.51249143 6.80807271,8.03579033 C6.80807271,9.55908923 7.76682809,10.9175027 9.20211417,11.4277903 L9.20211417,4.64379033 L9.20211417,4.64379033 Z M10.4021142,13.2357903 C7.53023347,13.2357903 5.20211417,10.907671 5.20211417,8.03579033 C5.20211417,5.16390963 7.53023347,2.83579033 10.4021142,2.83579033 C13.2739949,2.83579033 15.6021142,5.16390963 15.6021142,8.03579033 C15.6021142,10.907671 13.2739949,13.2357903 10.4021142,13.2357903 Z" id="shape" fill="#FFFFFF"></path>
                        </g>
                    </g>
                </g>
            </g>
        </g>
    </g>
</svg>

<svg width="24" height="16" xmlns="http://www.w3.org/2000/svg"><g fill-rule="nonzero" fill="none"><path d="M21.997 15.75H22c.955.008 1.74-.773 1.751-1.746V2.006a1.789 1.789 0 00-.52-1.25A1.72 1.72 0 0021.997.25H2.001A1.719 1.719 0 00.77.757c-.33.33-.517.779-.521 1.247v11.99c.004.47.191.92.52 1.25.329.328.771.51 1.233.506h19.994z" stroke-opacity=".2" stroke="#000" stroke-width=".5" fill="#FFF"/><path d="M10.002 2.052v-.016h4v.016a6 6 0 010 11.968v.016h-4v-.016a6 6 0 010-11.968z" fill="#0165AC"/><path d="M11.602 11.428a3.6 3.6 0 000-6.784v6.784zm-2.4-6.784a3.6 3.6 0 000 6.784V4.644zm1.2 8.592a5.2 5.2 0 110-10.4 5.2 5.2 0 010 10.4z" fill="#FFF"/></g></svg>
